packages/gestalt-icons-android/vr-theme/ic_vr_record-limit-10_gestalt.svg

<svg width="24" height="24" viewBox="0 0 24 24" fill="none" xmlns="http://www.w3.org/2000/svg">
<path d="M11.9423 0.000135899L12 0C15.2869 0 18.2642 1.32142 20.4308 3.4608C20.4354 3.46522 20.44 3.46968 20.4446 3.4742C20.4718 3.50115 20.4989 3.52822 20.5258 3.55543C20.5304 3.56004 20.5349 3.56468 20.5393 3.56935C21.5781 4.62144 22.4237 5.86438 23.0188 7.24055L23.0126 7.24325C23.0327 7.27836 23.0509 7.31507 23.0669 7.35331C23.0817 7.38858 23.0964 7.42394 23.1109 7.45938C23.32 7.97055 23.0751 8.55445 22.564 8.76354C22.0528 8.97264 21.4689 8.72776 21.2598 8.21659C21.2477 8.18708 21.2355 8.15765 21.2232 8.12829C21.2098 8.09652 21.1982 8.06445 21.1884 8.03218L21.1832 8.03443C20.6871 6.88735 19.9826 5.85181 19.1175 4.97541C19.1133 4.97129 19.1091 4.96711 19.1049 4.9629C19.0824 4.9402 19.0598 4.91761 19.0371 4.89512C19.0329 4.89099 19.0288 4.88683 19.0247 4.88264C17.2289 3.11019 14.7662 2.01293 12.0482 2.00011L12 2L11.9518 2.00011C11.3995 2.00272 10.9497 1.55712 10.9471 1.00484C10.9444 0.45256 11.39 0.00273925 11.9423 0.000135899Z" fill="black"/>
<path d="M8.76354 1.43605C8.97264 1.94722 8.72776 2.53111 8.21659 2.74021C8.18708 2.75228 8.15765 2.76448 8.12829 2.77682C7.61916 2.99083 7.03294 2.75158 6.81893 2.24244C6.60492 1.73331 6.84417 1.14708 7.35331 0.933077C7.38858 0.918251 7.42394 0.903588 7.45938 0.88909C7.97055 0.679994 8.55445 0.924874 8.76354 1.43605Z" fill="black"/>
<path d="M4.96963 3.48093C5.35829 3.87331 5.35528 4.50647 4.9629 4.89513C4.9402 4.91761 4.91761 4.9402 4.89512 4.9629C4.50646 5.35528 3.87331 5.35829 3.48093 4.96963C3.08855 4.58097 3.08554 3.94781 3.4742 3.55543C3.50115 3.52823 3.52822 3.50115 3.55543 3.4742C3.94781 3.08554 4.58097 3.08855 4.96963 3.48093Z" fill="black"/>
<path d="M2.24244 6.81893C2.75158 7.03294 2.99083 7.61916 2.77682 8.1283C2.76448 8.15766 2.75228 8.18709 2.74021 8.21659C2.53111 8.72776 1.94722 8.97264 1.43605 8.76354C0.924874 8.55445 0.679993 7.97055 0.889089 7.45938C0.903587 7.42394 0.91825 7.38858 0.933076 7.35331C1.14708 6.84417 1.73331 6.60492 2.24244 6.81893Z" fill="black"/>
<path d="M1.00484 10.9471C1.55712 10.9497 2.00272 11.3995 2.00011 11.9518L2 12L2.00011 12.0482C2.00272 12.6005 1.55712 13.0503 1.00484 13.0529C0.45256 13.0556 0.00273925 12.61 0.000135899 12.0577L0 12L0.000135899 11.9423C0.00273925 11.39 0.45256 10.9444 1.00484 10.9471Z" fill="black"/>
<path d="M22.9952 10.9471C23.5474 10.9444 23.9973 11.39 23.9999 11.9423L24 12L23.9999 12.0577C23.9973 12.61 23.5474 13.0556 22.9952 13.0529C22.4429 13.0503 21.9973 12.6005 21.9999 12.0482L22 12L21.9999 11.9518C21.9973 11.3995 22.4429 10.9497 22.9952 10.9471Z" fill="black"/>
<path d="M22.564 15.2365C23.0751 15.4456 23.32 16.0294 23.1109 16.5406L23.0844 16.6049L23.0669 16.6467C22.8529 17.1558 22.2667 17.3951 21.7576 17.1811C21.2484 16.9671 21.0092 16.3808 21.2232 15.8717L21.2412 15.8285L21.2598 15.7834C21.4689 15.2722 22.0528 15.0274 22.564 15.2365Z" fill="black"/>
<path d="M1.43605 15.2365C1.94722 15.0274 2.53111 15.2722 2.74021 15.7834C2.75228 15.8129 2.76448 15.8423 2.77682 15.8717C2.99083 16.3808 2.75158 16.9671 2.24244 17.1811C1.73331 17.3951 1.14708 17.1558 0.933077 16.6467C0.918251 16.6114 0.903588 16.5761 0.88909 16.5406C0.679994 16.0294 0.924874 15.4456 1.43605 15.2365Z" fill="black"/>
<path d="M20.5191 19.0304C20.9115 19.419 20.9145 20.0522 20.5258 20.4446C20.4989 20.4718 20.4718 20.4989 20.4446 20.5258C20.0522 20.9145 19.419 20.9114 19.0304 20.5191C18.6417 20.1267 18.6447 19.4935 19.0371 19.1049L19.0619 19.0802L19.1049 19.0371C19.4935 18.6447 20.1267 18.6417 20.5191 19.0304Z" fill="black"/>
<path d="M3.48093 19.0304C3.87331 18.6417 4.50647 18.6447 4.89513 19.0371C4.91761 19.0598 4.9402 19.0824 4.9629 19.1049C5.35528 19.4935 5.35829 20.1267 4.96963 20.5191C4.58097 20.9115 3.94781 20.9145 3.55543 20.5258C3.52823 20.4989 3.50115 20.4718 3.4742 20.4446C3.08554 20.0522 3.08855 19.419 3.48093 19.0304Z" fill="black"/>
<path d="M6.81893 21.7576C7.03294 21.2484 7.61916 21.0092 8.1283 21.2232C8.15766 21.2355 8.18709 21.2477 8.21659 21.2598C8.72776 21.4689 8.97264 22.0528 8.76354 22.564C8.55445 23.0751 7.97055 23.32 7.45938 23.1109C7.42394 23.0964 7.38858 23.0818 7.35331 23.0669C6.84417 22.8529 6.60492 22.2667 6.81893 21.7576Z" fill="black"/>
<path d="M17.1811 21.7576C17.3951 22.2667 17.1558 22.8529 16.6467 23.0669C16.6114 23.0817 16.5761 23.0964 16.5406 23.1109C16.0294 23.32 15.4456 23.0751 15.2365 22.564C15.0274 22.0528 15.2722 21.4689 15.7834 21.2598C15.8129 21.2477 15.8423 21.2355 15.8717 21.2232C16.3808 21.0092 16.9671 21.2484 17.1811 21.7576Z" fill="black"/>
<path d="M10.9471 22.9952C10.9497 22.4429 11.3995 21.9973 11.9518 21.9999L12 22L12.0482 21.9999C12.6005 21.9973 13.0503 22.4429 13.0529 22.9952C13.0556 23.5474 12.61 23.9973 12.0577 23.9999L12 24L11.9423 23.9999C11.39 23.9973 10.9444 23.5474 10.9471 22.9952Z" fill="black"/>
<path d="M8.06441 8.245H9.59341V16H8.00941V10.643C7.73441 11.116 7.11841 11.325 6.28241 11.325V9.719C7.41541 9.719 8.05341 9.235 8.06441 8.245Z" fill="black"/>
<path fill-rule="evenodd" clip-rule="evenodd" d="M14.3325 16.154C12.3195 16.154 11.1095 14.647 11.1095 12.117C11.1095 9.598 12.3195 8.091 14.3325 8.091C16.3565 8.091 17.5555 9.598 17.5555 12.117C17.5555 14.647 16.3565 16.154 14.3325 16.154ZM14.3325 14.669C15.3115 14.669 15.9055 13.723 15.9055 12.117C15.9055 10.522 15.3115 9.576 14.3325 9.576C13.3535 9.576 12.7705 10.522 12.7705 12.117C12.7705 13.723 13.3535 14.669 14.3325 14.669Z" fill="black"/>
</svg>

<svg xmlns="http://www.w3.org/2000/svg" width="24" height="24"><path d="M11.94 0H12a12 12 0 0 1 11.02 7.24l.05.11.04.1a1 1 0 1 1-1.89.68l-.03-.1A10 10 0 0 0 12.04 2h-.1a1 1 0 0 1 0-2M8.76 1.44a1 1 0 0 1-.54 1.3l-.1.04A1 1 0 1 1 7.36.93l.1-.04a1 1 0 0 1 1.31.55m-3.8 2.04a1 1 0 0 1 0 1.42l-.07.06a1 1 0 1 1-1.43-1.4l.09-.09a1 1 0 0 1 1.41.01M2.24 6.82a1 1 0 0 1 .54 1.3l-.04.1a1 1 0 0 1-1.85-.76l.04-.1a1 1 0 0 1 1.31-.54M1 10.95a1 1 0 0 1 1 1v.1a1 1 0 0 1-2 0v-.11a1 1 0 0 1 1-1m22 0a1 1 0 0 1 1 1v.11a1 1 0 1 1-2-.01v-.1a1 1 0 0 1 1-1m-.44 4.29c.52.2.76.79.55 1.3l-.03.06-.01.05a1 1 0 1 1-1.85-.78l.02-.04.02-.05a1 1 0 0 1 1.3-.54m-21.12 0a1 1 0 0 1 1.3.54l.04.1a1 1 0 0 1-1.85.77l-.04-.1a1 1 0 0 1 .55-1.31m19.08 3.79a1 1 0 0 1 0 1.41l-.08.09a1 1 0 0 1-1.4-1.43l.02-.02.04-.04a1 1 0 0 1 1.42-.01m-17.04 0a1 1 0 0 1 1.42 0l.06.07a1 1 0 1 1-1.4 1.43l-.09-.09a1 1 0 0 1 .01-1.41m3.34 2.73a1 1 0 0 1 1.3-.54l.1.04a1 1 0 0 1-.76 1.85l-.1-.04a1 1 0 0 1-.54-1.31m10.36 0a1 1 0 0 1-.53 1.3l-.1.05a1 1 0 1 1-.77-1.85l.1-.04a1 1 0 0 1 1.3.54M10.95 23a1 1 0 0 1 1-1h.1a1 1 0 0 1 0 2h-.11a1 1 0 0 1-1-1M8.06 8.25H9.6V16H8.01v-5.36c-.28.48-.9.69-1.73.69V9.72c1.14 0 1.77-.48 1.78-1.47m6.27 7.9c-2.01 0-3.22-1.5-3.22-4.03 0-2.52 1.21-4.03 3.22-4.03 2.03 0 3.23 1.5 3.23 4.03s-1.2 4.03-3.23 4.03m0-1.48c.98 0 1.58-.95 1.58-2.55s-.6-2.54-1.58-2.54-1.56.94-1.56 2.54.58 2.55 1.56 2.55"/></svg>
